X: 1
M: 4/4
L: 1/4
%%score {RH | LH}
V: RH clef=treble
V: LH clef=bass
K: C
%
[V: RH] "_3"E E "_4"F "_5"G | "_5"G "_4"F "_3"E "_2"D | "_1"C C "_2"D "_3"E | "_3"E "_2"D D2 |
[V: LH] "_3"E, E, "_2"F, "_1"G, | "_1"G, "_2"F, "_3"E, "_4"D, | "_5"C, C, "_4"D, "_3"E, | "_3"E, "_4"D, D,2 |
%
[V: RH] "_3"E E "_4"F "_5"G | "_5"G "_4"F "_3"E "_2"D | "_1"C C "_2"D "_3"E | "_2"D "_1"C C2 |]
[V: LH] "_3"E, E, "_2"F, "_1"G, | "_1"G, "_2"F, "_3"E, "_4"D, | "_5"C, C, "_4"D, "_3"E, | "_4"D, "_5"C, C,2 |]
